src/packages/tokens/img/fil.svg

<svg width="24" height="24" viewBox="0 0 24 24" fill="none" xmlns="http://www.w3.org/2000/svg">
<g clip-path="url(#clip0_8_2926)">
<mask id="mask0_8_2926" style="mask-type:alpha" maskUnits="userSpaceOnUse" x="0" y="0" width="24" height="24">
<path fill-rule="evenodd" clip-rule="evenodd" d="M0 0H24V24H0V0Z" fill="white"/>
</mask>
<g mask="url(#mask0_8_2926)">
<path fill-rule="evenodd" clip-rule="evenodd" d="M12 24.0001C5.4 24.0001 0 18.6001 0 11.9401C0.06 5.34013 5.4 -0.059871 12.06 0.000129003C18.66 0.060129 24 5.40013 24 12.1201C23.94 18.6601 18.6 24.0001 12 24.0001Z" fill="#0090FF"/>
<path fill-rule="evenodd" clip-rule="evenodd" d="M13.14 10.56L12.78 12.48L16.2 12.96L15.96 13.86L12.6 13.38C12.36 14.16 12.24 15 11.94 15.72C11.64 16.56 11.34 17.4 10.98 18.18C10.5 19.2 9.65999 19.92 8.51999 20.1C7.85999 20.22 7.13999 20.16 6.59999 19.74C6.41999 19.62 6.23999 19.38 6.23999 19.2C6.23999 18.96 6.35999 18.66 6.53999 18.54C6.65999 18.48 6.95999 18.54 7.13999 18.6C7.31999 18.78 7.49999 19.02 7.61999 19.26C7.97999 19.74 8.45999 19.8 8.93999 19.44C9.47999 18.96 9.77999 18.3 9.95999 17.64C10.32 16.2 10.68 14.82 10.98 13.38V13.14L7.79999 12.66L7.91999 11.76L11.22 12.24L11.64 10.38L8.21999 9.84L8.33999 8.88L11.88 9.36C12 9 12.06 8.7 12.18 8.4C12.48 7.32 12.78 6.24 13.5 5.28C14.22 4.32 15.06 3.72 16.32 3.78C16.86 3.78 17.4 3.96 17.76 4.38C17.82 4.44 17.94 4.56 17.94 4.68C17.94 4.92 17.94 5.22 17.76 5.4C17.52 5.58 17.22 5.52 16.98 5.28C16.8 5.1 16.68 4.92 16.5 4.74C16.14 4.26 15.6 4.2 15.18 4.62C14.88 4.92 14.58 5.34 14.4 5.76C13.98 7.02 13.68 8.34 13.26 9.66L16.56 10.14L16.32 11.04L13.14 10.56Z" fill="white"/>
</g>
</g>
<defs>
<clipPath id="clip0_8_2926">
<rect width="24" height="24" fill="white"/>
</clipPath>
</defs>
</svg>

<svg xmlns="http://www.w3.org/2000/svg" width="24" height="24" fill="none" xmlns:v="https://vecta.io/nano"><g clip-path="url(#B)"><mask id="A" maskUnits="userSpaceOnUse" x="0" y="0" width="24" height="24" mask-type="alpha"><path fill-rule="evenodd" d="M0 0H24V24H0V0Z" fill="#fff"/></mask><g mask="url(#A)"><path fill-rule="evenodd" d="M12 24C5.4 24 0 18.6 0 11.94.06 5.34 5.4-.06 12.06 0 18.66.06 24 5.4 24 12.12 23.94 18.66 18.6 24 12 24z" fill="#0090ff"/><path fill-rule="evenodd" d="M13.14 10.56l-.36 1.92 3.42.48-.24.9-3.36-.48c-.24.78-.36 1.62-.66 2.34l-.96 2.46c-.48 1.02-1.32 1.74-2.46 1.92-.66.12-1.38.06-1.92-.36-.18-.12-.36-.36-.36-.54 0-.24.12-.54.3-.66.12-.06.42 0 .6.06.18.18.36.42.48.66.36.48.84.54 1.32.18.54-.48.84-1.14 1.02-1.8l1.02-4.26v-.24l-3.18-.48.12-.9 3.3.48.42-1.86-3.42-.54.12-.96 3.54.48.3-.96c.3-1.08.6-2.16 1.32-3.12s1.56-1.56 2.82-1.5c.54 0 1.08.18 1.44.6.06.06.18.18.18.3 0 .24 0 .54-.18.72-.24.18-.54.12-.78-.12-.18-.18-.3-.36-.48-.54-.36-.48-.9-.54-1.32-.12-.3.3-.6.72-.78 1.14l-1.14 3.9 3.3.48-.24.9-3.18-.48z" fill="#fff"/></g></g><defs><clipPath id="B"><path fill="#fff" d="M0 0h24v24H0z"/></clipPath></defs></svg>
